!!!OTL: Dawo hao
!!!ARE: Asia, China,ÿShandong, Lijing
!! III, 363
!!!SCT: C1569
!!!YEM: Copyright 1995, estate of Helmut Schaffrath.
**kern
*ICvox
*Ivox
*M2/4
*k[b-]
*F:
{4ee
8dd
8ee
=1
4cc
8dd
8ee
=2
4.dd
16dd
16ee
=3
8dd
8cc
4dd}
=4
{4.dd
8cc
=5
4dd
4dd
=6
8dd
8ee
8dd
8cc
=7
4dd
4r}
=8
{4ee
8dd
8ee
=9
4cc
8dd
8ee
=10
8a
16a
16b-
8a
8g
=11
8a
8d
4f}
=12
{4.f
8d
=13
4f
4f
=14
8f
8g
8f
8d
=15
4f
4r}
==
!!!AGN: Haozi, Huanghe haozi
!!!AMT: simple duple
!!!AIN: vox
!!!EED: Helmut Schaffrath
!!!EEV: 1.0
*-
